packages/sources/assets/src/assets/flag-bw.svg

<svg width="28" height="20" viewBox="0 0 28 20" fill="none" xmlns="http://www.w3.org/2000/svg">
<rect width="28" height="20" rx="2" fill="white"/>
<mask id="mask0_503_4673" style="mask-type:alpha" maskUnits="userSpaceOnUse" x="0" y="0" width="28" height="20">
<rect width="28" height="20" rx="2" fill="white"/>
</mask>
<g mask="url(#mask0_503_4673)">
<path fill-rule="evenodd" clip-rule="evenodd" d="M0 6.66667H28V0H0V6.66667Z" fill="#8BBDEA"/>
<path fill-rule="evenodd" clip-rule="evenodd" d="M0 20H28V13.3333H0V20Z" fill="#8BBDEA"/>
<path fill-rule="evenodd" clip-rule="evenodd" d="M0 13.3333H28V6.66666H0V13.3333Z" fill="white"/>
<path fill-rule="evenodd" clip-rule="evenodd" d="M0 12H28V8H0V12Z" fill="#262626"/>
</g>
</svg>

<svg width="28" height="20" fill="none" xmlns="http://www.w3.org/2000/svg"><rect width="28" height="20" rx="2" fill="#fff"/><mask id="a" style="mask-type:alpha" maskUnits="userSpaceOnUse" x="0" y="0" width="28" height="20"><rect width="28" height="20" rx="2" fill="#fff"/></mask><g mask="url(#a)" fill-rule="evenodd" clip-rule="evenodd"><path d="M0 6.667h28V0H0v6.667ZM0 20h28v-6.667H0V20Z" fill="#8BBDEA"/><path d="M0 13.333h28V6.667H0v6.666Z" fill="#fff"/><path d="M0 12h28V8H0v4Z" fill="#262626"/></g></svg>
